X: 100
T: Wandering Minstrel, The
C: Trad.
O: Cape Breton
S: Ashely MacIsaak Close to the Floor
Z: transcribed by J. Rooney
R: jig
M: 6/8
L: 1/8
Z: Contributed 20010620142536 by Jeff Rooney jeffr@alcatel.com
K: D
ADD {c}BAF|Ade fdB|ADD {c}BAG|F/G/AF GFE|
ADD {c}BAF|Ade fdB|AdB AFE|1 FDD {E}D2B:|2 FDD D2B||
|:ABd ede|fdB AFA|B3 BAF|BAF E2g|
|faf ede|fdB AFA|BdB AFE|FDD {E}D3:|
ag|:fdf afd|g/2a/2 be g/2a/2 be|fdf afd|c/2d/2 eA c/2d/2 eA|
fdf afd|gbe gbe|fdf ede|1 fdc d2e:|2 fdc d2B||


